images/lean_logo.svg

<?xml version="1.0" encoding="UTF-8" standalone="no"?>
<svg
   xmlns:dc="http://purl.org/dc/elements/1.1/"
   xmlns:cc="http://creativecommons.org/ns#"
   xmlns:rdf="http://www.w3.org/1999/02/22-rdf-syntax-ns#"
   xmlns:svg="http://www.w3.org/2000/svg"
   xmlns="http://www.w3.org/2000/svg"
   xmlns:xlink="http://www.w3.org/1999/xlink"
   xmlns:sodipodi="http://sodipodi.sourceforge.net/DTD/sodipodi-0.dtd"
   xmlns:inkscape="http://www.inkscape.org/namespaces/inkscape"
   width="300"
   height="150"
   viewBox="0 0 240 120"
   version="1.1"
   id="svg2"
   inkscape:version="0.48.4 r9939"
   sodipodi:docname="lean_logo.svg">
  <metadata
     id="metadata113">
    <rdf:RDF>
      <cc:Work
         rdf:about="">
        <dc:format>image/svg+xml</dc:format>
        <dc:type
           rdf:resource="http://purl.org/dc/dcmitype/StillImage" />
      </cc:Work>
    </rdf:RDF>
  </metadata>
  <sodipodi:namedview
     pagecolor="#ffffff"
     bordercolor="#666666"
     borderopacity="1"
     objecttolerance="10"
     gridtolerance="10"
     guidetolerance="10"
     inkscape:pageopacity="0"
     inkscape:pageshadow="2"
     inkscape:window-width="1244"
     inkscape:window-height="759"
     id="namedview111"
     showgrid="false"
     inkscape:zoom="0.30337662"
     inkscape:cx="553.28599"
     inkscape:cy="259.375"
     inkscape:window-x="50"
     inkscape:window-y="48"
     inkscape:window-maximized="0"
     inkscape:current-layer="svg2" />
  <defs
     id="defs4">
    <g
       id="g6">
      <symbol
         overflow="visible"
         id="glyph0-0"
         style="overflow:visible">
        <path
           style="stroke:none"
           d="m -5.140625,0 -180.499995,0 0,-262.4375 180.499995,0 z M -178.125,-250.15625 l 0,237.09375 79.171875,-118.75 z m 5.14063,243.03125 154.781245,0 -77.1875,-117.5625 z m 77.593745,-131.8125 77.1875,-116.375 -154.781245,0 z m 3.5625,7.125 79.15625,118.75 0,-237.09375 z"
           id="path9"
           inkscape:connector-curvature="0" />
      </symbol>
      <symbol
         overflow="visible"
         id="glyph0-1"
         style="overflow:visible">
        <path
           style="stroke:none"
           d="m -24.9375,-135.375 -143.29687,0 0,-6.32812 143.29687,0 0,-129.04688 -146.45312,0 0,-5.9375 152.781245,0 0,276.6875 -153.578125,0 0,-5.9375 147.25,0 z"
           id="path12"
           inkscape:connector-curvature="0" />
      </symbol>
      <symbol
         overflow="visible"
         id="glyph1-0"
         style="overflow:visible">
        <path
           style="stroke:none"
           d="m 5.140625,0 180.499995,0 0,-262.4375 -180.499995,0 z M 178.125,-250.15625 l 0,237.09375 -79.171875,-118.75 z m -5.14063,243.03125 -154.781245,0 77.1875,-117.5625 z m -77.593745,-131.8125 -77.1875,-116.375 154.781245,0 z m -3.5625,7.125 -79.15625,118.75 0,-237.09375 z"
           id="path15"
           inkscape:connector-curvature="0" />
      </symbol>
      <symbol
         overflow="visible"
         id="glyph1-1"
         style="overflow:visible">
        <path
           style="stroke:none"
           d="m 24.9375,0 0,-264.40625 L 207.8125,0 l 6.32812,0 0,-277.07812 -5.9375,0 0,265.999995 -184.062495,-265.999995 -5.53125,-0.39063 0,277.46875 z"
           id="path18"
           inkscape:connector-curvature="0" />
      </symbol>
      <symbol
         overflow="visible"
         id="glyph1-2"
         style="overflow:visible">
        <path
           style="stroke:none"
           d="m 24.9375,-276.6875 -6.328125,0 0,276.6875 C 70.453125,0 121.92188,0 173.76562,0 l 0,-6.328125 -148.82812,0 z"
           id="path21"
           inkscape:connector-curvature="0" />
      </symbol>
      <symbol
         overflow="visible"
         id="glyph2-0"
         style="overflow:visible">
        <path
           style="stroke:none"
           d="m 1.21875,0 42.5,0 0,-61.796875 -42.5,0 z m 40.734375,-58.921875 0,55.84375 -18.640625,-27.96875 z m -1.21875,57.25 -36.453125,0 18.1875,-27.6875 z M 22.46875,-32.71875 4.28125,-60.125 l 36.453125,0 z m -0.84375,1.671875 -18.640625,27.96875 0,-55.84375 z"
           id="path24"
           inkscape:connector-curvature="0" />
      </symbol>
      <symbol
         overflow="visible"
         id="glyph2-1"
         style="overflow:visible">
        <path
           style="stroke:none"
           d="m 24.796875,0.28125 0,-64.046875 22.5625,0 0,-1.484375 -46.515625,0 0,1.484375 22.546875,0 0,64.046875 z"
           id="path27"
           inkscape:connector-curvature="0" />
      </symbol>
      <symbol
         overflow="visible"
         id="glyph2-2"
         style="overflow:visible">
        <path
           style="stroke:none"
           d="m 5.78125,-65.15625 -1.40625,0 0,65.15625 1.40625,0 0,-32.34375 40.921875,0 0,32.34375 1.484375,0 0,-65.15625 -1.484375,0 0,31.40625 -40.921875,0 z"
           id="path30"
           inkscape:connector-curvature="0" />
      </symbol>
      <symbol
         overflow="visible"
         id="glyph2-3"
         style="overflow:visible">
        <path
           style="stroke:none"
           d="m 5.875,-31.875 33.75,0 0,-1.5 -33.75,0 0,-30.390625 34.484375,0 0,-1.390625 -35.984375,0 0,65.15625 36.171875,0 0,-1.390625 -34.671875,0 z"
           id="path33"
           inkscape:connector-curvature="0" />
      </symbol>
      <symbol
         overflow="visible"
         id="glyph2-4"
         style="overflow:visible">
        <path
           style="stroke:none"
           d="m 67.765625,-32.625 c 0,8.859375 -3.53125,16.78125 -9.21875,22.5625 -5.78125,5.875 -13.796875,9.5 -22.5625,9.5 -8.765625,0 -16.6875,-3.625 -22.46875,-9.5 C 7.828125,-15.84375 4.1875,-23.765625 4.1875,-32.625 c 0,-8.859375 3.640625,-16.78125 9.328125,-22.5625 5.78125,-5.875 13.703125,-9.5 22.46875,-9.5 8.765625,0 16.78125,3.625 22.5625,9.5 5.6875,5.78125 9.21875,13.703125 9.21875,22.5625 z m -65.0625,0 c 0,9.234375 3.828125,17.609375 9.78125,23.671875 5.96875,6.15625 14.359375,9.890625 23.5,9.890625 9.234375,0 17.515625,-3.734375 23.578125,-9.890625 5.96875,-6.0625 9.796875,-14.4375 9.796875,-23.671875 0,-9.234375 -3.828125,-17.625 -9.796875,-23.671875 C 53.5,-62.453125 45.21875,-66.1875 35.984375,-66.1875 c -9.140625,0 -17.53125,3.734375 -23.5,9.890625 C 6.53125,-50.25 2.703125,-41.859375 2.703125,-32.625 z"
           id="path36"
           inkscape:connector-curvature="0" />
      </symbol>
      <symbol
         overflow="visible"
         id="glyph2-5"
         style="overflow:visible">
        <path
           style="stroke:none"
           d="m 5.78125,-63.765625 21.15625,0 c 24.234375,0 24.234375,35.234375 0,35.234375 l -12.671875,0 0,1.40625 L 44.28125,0 46.421875,0 16.40625,-27.125 l 10.53125,0 c 26.109375,0 26.109375,-38.125 0,-38.125 l -22.5625,0 0,65.25 1.40625,0 z"
           id="path39"
           inkscape:connector-curvature="0" />
      </symbol>
      <symbol
         overflow="visible"
         id="glyph2-6"
         style="overflow:visible">
        <path
           style="stroke:none"
           d="m 5.78125,-63.109375 26.5625,39.53125 1.21875,0 26.5625,-39.53125 0,63.109375 1.40625,0 0,-65.25 -1.5,0 -27.125,39.984375 L 5.875,-65.25 l -1.5,0 0,65.25 1.40625,0 z"
           id="path42"
           inkscape:connector-curvature="0" />
      </symbol>
      <symbol
         overflow="visible"
         id="glyph2-7"
         style="overflow:visible">
        <path
           style="stroke:none"
           d=""
           id="path45"
           inkscape:connector-curvature="0" />
      </symbol>
      <symbol
         overflow="visible"
         id="glyph2-8"
         style="overflow:visible">
        <path
           style="stroke:none"
           d="m 4.375,-64.5 c 0,21.53125 0,42.96875 0,64.5 l 1.5,0 0,-24.796875 21.0625,0 c 26.109375,0 26.109375,-40.453125 0,-40.453125 l -22.5625,0 z m 1.5,38.3125 0,-37.578125 21.0625,0 c 24.234375,0 24.234375,37.578125 0,37.578125 z"
           id="path48"
           inkscape:connector-curvature="0" />
      </symbol>
      <symbol
         overflow="visible"
         id="glyph2-9"
         style="overflow:visible">
        <path
           style="stroke:none"
           d="m 5.78125,-63.765625 21.15625,0 c 24.234375,0 24.234375,35.234375 0,35.234375 l -12.671875,0 0,1.40625 L 44.28125,0 46.421875,0 16.40625,-27.125 l 10.53125,0 c 26.109375,0 26.109375,-38.125 0,-38.125 l -22.5625,0 0,65.25 1.40625,0 z"
           id="path51"
           inkscape:connector-curvature="0" />
      </symbol>
      <symbol
         overflow="visible"
         id="glyph2-10"
         style="overflow:visible">
        <path
           style="stroke:none"
           d="m 67.03125,-32.625 c 0,8.859375 -3.546875,16.78125 -9.234375,22.5625 -5.78125,5.875 -13.796875,9.5 -22.5625,9.5 -8.765625,0 -16.6875,-3.625 -22.46875,-9.5 -5.6875,-5.78125 -9.3125,-13.703125 -9.3125,-22.5625 0,-8.859375 3.625,-16.78125 9.3125,-22.5625 5.78125,-5.875 13.703125,-9.5 22.46875,-9.5 8.765625,0 16.78125,3.625 22.5625,9.5 5.6875,5.78125 9.234375,13.703125 9.234375,22.5625 z m -65.078125,0 c 0,9.234375 3.828125,17.609375 9.796875,23.671875 5.96875,6.15625 14.34375,9.890625 23.484375,9.890625 9.234375,0 17.53125,-3.734375 23.59375,-9.890625 5.953125,-6.0625 9.78125,-14.4375 9.78125,-23.671875 0,-9.234375 -3.828125,-17.625 -9.78125,-23.671875 -6.0625,-6.15625 -14.359375,-9.890625 -23.59375,-9.890625 -9.140625,0 -17.515625,3.734375 -23.484375,9.890625 C 5.78125,-50.25 1.953125,-41.859375 1.953125,-32.625 z"
           id="path54"
           inkscape:connector-curvature="0" />
      </symbol>
      <symbol
         overflow="visible"
         id="glyph2-11"
         style="overflow:visible">
        <path
           style="stroke:none"
           d="m 27.5,-0.84375 -25.359375,-64.3125 -1.578125,0 26.1875,66.1875 1.59375,0 26.1875,-66.1875 -1.578125,0 z"
           id="path57"
           inkscape:connector-curvature="0" />
      </symbol>
      <symbol
         overflow="visible"
         id="glyph2-12"
         style="overflow:visible">
        <path
           style="stroke:none"
           d="m 5.875,-31.875 33.75,0 0,-1.5 -33.75,0 0,-30.390625 34.484375,0 0,-1.390625 -35.984375,0 0,65.15625 36.171875,0 0,-1.390625 -34.671875,0 z"
           id="path60"
           inkscape:connector-curvature="0" />
      </symbol>
    </g>
    <clipPath
       clipPathUnits="userSpaceOnUse"
       id="clipPath3094">
      <rect
         style="fill:#0000ff;fill-rule:evenodd;stroke:#000000;stroke-width:0.80000001px;stroke-linecap:butt;stroke-linejoin:miter;stroke-opacity:1"
         id="rect3096"
         width="754.1781"
         height="300.61642"
         x="13.184932"
         y="8.90411" />
    </clipPath>
  </defs>
  <g
     id="surface1"
     clip-path="url(#clipPath3094)"
     transform="matrix(0.30563256,0,0,0.25971391,2.2768141,14.142563)">
    <g
       style="fill:#000000;fill-opacity:1"
       id="g63">
      <use
         xlink:href="#glyph0-1"
         x="348.2168"
         y="301.89426"
         id="use65"
         width="770"
         height="415" />
    </g>
    <g
       style="fill:#000000;fill-opacity:1"
       id="g67">
      <use
         xlink:href="#glyph1-1"
         x="529.64868"
         y="301.89426"
         id="use69"
         width="770"
         height="415" />
    </g>
    <g
       style="fill:#000000;fill-opacity:1"
       id="g71">
      <use
         xlink:href="#glyph1-2"
         x="6.1280389"
         y="301.89426"
         id="use73"
         width="770"
         height="415" />
    </g>
    <path
       style="fill:none;stroke:#000000;stroke-width:2;stroke-linecap:butt;stroke-linejoin:miter;stroke-miterlimit:4;stroke-opacity:1"
       d="m 493.91343,343.0006 35.08676,83.49946 34.99987,-83.49946"
       transform="matrix(3.192199,0,0,3.192199,-1250.002,-1067.559)"
       id="path75"
       inkscape:connector-curvature="0" />
    <path
       style="fill:none;stroke:#000000;stroke-width:2;stroke-linecap:butt;stroke-linejoin:miter;stroke-miterlimit:4;stroke-opacity:1"
       d="m 511.0585,384.99996 35.69493,0"
       transform="matrix(3.192199,0,0,3.192199,-1250.002,-1067.559)"
       id="path77"
       inkscape:connector-curvature="0" />
    <g
       style="fill:#000000;fill-opacity:1"
       id="g79">
      <use
         xlink:href="#glyph2-1"
         x="26.006697"
         y="388.08368"
         id="use81"
         width="770"
         height="415" />
      <use
         xlink:href="#glyph2-2"
         x="74.570259"
         y="388.08368"
         id="use83"
         width="770"
         height="415" />
      <use
         xlink:href="#glyph2-3"
         x="127.04873"
         y="388.08368"
         id="use85"
         width="770"
         height="415" />
      <use
         xlink:href="#glyph2-4"
         x="170.01956"
         y="388.08368"
         id="use87"
         width="770"
         height="415" />
      <use
         xlink:href="#glyph2-5"
         x="241.79297"
         y="388.08368"
         id="use89"
         width="770"
         height="415" />
      <use
         xlink:href="#glyph2-3"
         x="291.10223"
         y="388.08368"
         id="use91"
         width="770"
         height="415" />
      <use
         xlink:href="#glyph2-6"
         x="334.07306"
         y="388.08368"
         id="use93"
         width="770"
         height="415" />
      <use
         xlink:href="#glyph2-7"
         x="399.97409"
         y="388.08368"
         id="use95"
         width="770"
         height="415" />
      <use
         xlink:href="#glyph2-8"
         x="432.78479"
         y="388.08368"
         id="use97"
         width="770"
         height="415" />
      <use
         xlink:href="#glyph2-9"
         x="481.34836"
         y="388.08368"
         id="use99"
         width="770"
         height="415" />
      <use
         xlink:href="#glyph2-10"
         x="530.47119"
         y="388.08368"
         id="use101"
         width="770"
         height="415" />
    </g>
    <g
       style="fill:#000000;fill-opacity:1"
       id="g103">
      <use
         xlink:href="#glyph2-11"
         x="599.16858"
         y="388.08368"
         id="use105"
         width="770"
         height="415" />
      <use
         xlink:href="#glyph2-12"
         x="654.16376"
         y="388.08368"
         id="use107"
         width="770"
         height="415" />
      <use
         xlink:href="#glyph2-9"
         x="697.13458"
         y="388.08368"
         id="use109"
         width="770"
         height="415" />
    </g>
  </g>
</svg>

<?xml version="1.0" encoding="UTF-8"?>
<svg xmlns="http://www.w3.org/2000/svg" xmlns:xlink="http://www.w3.org/1999/xlink" width="770pt" height="415pt" viewBox="0 0 770 415" version="1.1">
<defs>
<g>
<symbol overflow="visible" id="glyph0-0">
<path style="stroke:none;" d="M -5.140625 0 L -185.640625 0 L -185.640625 -262.4375 L -5.140625 -262.4375 Z M -178.125 -250.15625 L -178.125 -13.0625 L -98.953125 -131.8125 Z M -172.984375 -7.125 L -18.203125 -7.125 L -95.390625 -124.6875 Z M -95.390625 -138.9375 L -18.203125 -255.3125 L -172.984375 -255.3125 Z M -91.828125 -131.8125 L -12.671875 -13.0625 L -12.671875 -250.15625 Z "/>
</symbol>
<symbol overflow="visible" id="glyph0-1">
<path style="stroke:none;" d="M -24.9375 -135.375 L -168.234375 -135.375 L -168.234375 -141.703125 L -24.9375 -141.703125 L -24.9375 -270.75 L -171.390625 -270.75 L -171.390625 -276.6875 L -18.609375 -276.6875 L -18.609375 0 L -172.1875 0 L -172.1875 -5.9375 L -24.9375 -5.9375 Z "/>
</symbol>
<symbol overflow="visible" id="glyph1-0">
<path style="stroke:none;" d="M 5.140625 0 L 185.640625 0 L 185.640625 -262.4375 L 5.140625 -262.4375 Z M 178.125 -250.15625 L 178.125 -13.0625 L 98.953125 -131.8125 Z M 172.984375 -7.125 L 18.203125 -7.125 L 95.390625 -124.6875 Z M 95.390625 -138.9375 L 18.203125 -255.3125 L 172.984375 -255.3125 Z M 91.828125 -131.8125 L 12.671875 -13.0625 L 12.671875 -250.15625 Z "/>
</symbol>
<symbol overflow="visible" id="glyph1-1">
<path style="stroke:none;" d="M 24.9375 0 L 24.9375 -264.40625 L 207.8125 0 L 214.140625 0 L 214.140625 -277.078125 L 208.203125 -277.078125 L 208.203125 -11.078125 L 24.140625 -277.078125 L 18.609375 -277.46875 L 18.609375 0 Z "/>
</symbol>
<symbol overflow="visible" id="glyph1-2">
<path style="stroke:none;" d="M 24.9375 -276.6875 L 18.609375 -276.6875 L 18.609375 0 C 70.453125 0 121.921875 0 173.765625 0 L 173.765625 -6.328125 L 24.9375 -6.328125 Z "/>
</symbol>
<symbol overflow="visible" id="glyph2-0">
<path style="stroke:none;" d="M 1.21875 0 L 43.71875 0 L 43.71875 -61.796875 L 1.21875 -61.796875 Z M 41.953125 -58.921875 L 41.953125 -3.078125 L 23.3125 -31.046875 Z M 40.734375 -1.671875 L 4.28125 -1.671875 L 22.46875 -29.359375 Z M 22.46875 -32.71875 L 4.28125 -60.125 L 40.734375 -60.125 Z M 21.625 -31.046875 L 2.984375 -3.078125 L 2.984375 -58.921875 Z "/>
</symbol>
<symbol overflow="visible" id="glyph2-1">
<path style="stroke:none;" d="M 24.796875 0.28125 L 24.796875 -63.765625 L 47.359375 -63.765625 L 47.359375 -65.25 L 0.84375 -65.25 L 0.84375 -63.765625 L 23.390625 -63.765625 L 23.390625 0.28125 Z "/>
</symbol>
<symbol overflow="visible" id="glyph2-2">
<path style="stroke:none;" d="M 5.78125 -65.15625 L 4.375 -65.15625 L 4.375 0 L 5.78125 0 L 5.78125 -32.34375 L 46.703125 -32.34375 L 46.703125 0 L 48.1875 0 L 48.1875 -65.15625 L 46.703125 -65.15625 L 46.703125 -33.75 L 5.78125 -33.75 Z "/>
</symbol>
<symbol overflow="visible" id="glyph2-3">
<path style="stroke:none;" d="M 5.875 -31.875 L 39.625 -31.875 L 39.625 -33.375 L 5.875 -33.375 L 5.875 -63.765625 L 40.359375 -63.765625 L 40.359375 -65.15625 L 4.375 -65.15625 L 4.375 0 L 40.546875 0 L 40.546875 -1.390625 L 5.875 -1.390625 Z "/>
</symbol>
<symbol overflow="visible" id="glyph2-4">
<path style="stroke:none;" d="M 67.765625 -32.625 C 67.765625 -23.765625 64.234375 -15.84375 58.546875 -10.0625 C 52.765625 -4.1875 44.75 -0.5625 35.984375 -0.5625 C 27.21875 -0.5625 19.296875 -4.1875 13.515625 -10.0625 C 7.828125 -15.84375 4.1875 -23.765625 4.1875 -32.625 C 4.1875 -41.484375 7.828125 -49.40625 13.515625 -55.1875 C 19.296875 -61.0625 27.21875 -64.6875 35.984375 -64.6875 C 44.75 -64.6875 52.765625 -61.0625 58.546875 -55.1875 C 64.234375 -49.40625 67.765625 -41.484375 67.765625 -32.625 Z M 2.703125 -32.625 C 2.703125 -23.390625 6.53125 -15.015625 12.484375 -8.953125 C 18.453125 -2.796875 26.84375 0.9375 35.984375 0.9375 C 45.21875 0.9375 53.5 -2.796875 59.5625 -8.953125 C 65.53125 -15.015625 69.359375 -23.390625 69.359375 -32.625 C 69.359375 -41.859375 65.53125 -50.25 59.5625 -56.296875 C 53.5 -62.453125 45.21875 -66.1875 35.984375 -66.1875 C 26.84375 -66.1875 18.453125 -62.453125 12.484375 -56.296875 C 6.53125 -50.25 2.703125 -41.859375 2.703125 -32.625 Z "/>
</symbol>
<symbol overflow="visible" id="glyph2-5">
<path style="stroke:none;" d="M 5.78125 -63.765625 L 26.9375 -63.765625 C 51.171875 -63.765625 51.171875 -28.53125 26.9375 -28.53125 L 14.265625 -28.53125 L 14.265625 -27.125 L 44.28125 0 L 46.421875 0 L 16.40625 -27.125 L 26.9375 -27.125 C 53.046875 -27.125 53.046875 -65.25 26.9375 -65.25 L 4.375 -65.25 L 4.375 0 L 5.78125 0 Z "/>
</symbol>
<symbol overflow="visible" id="glyph2-6">
<path style="stroke:none;" d="M 5.78125 -63.109375 L 32.34375 -23.578125 L 33.5625 -23.578125 L 60.125 -63.109375 L 60.125 0 L 61.53125 0 L 61.53125 -65.25 L 60.03125 -65.25 L 32.90625 -25.265625 L 5.875 -65.25 L 4.375 -65.25 L 4.375 0 L 5.78125 0 Z "/>
</symbol>
<symbol overflow="visible" id="glyph2-7">
<path style="stroke:none;" d=""/>
</symbol>
<symbol overflow="visible" id="glyph2-8">
<path style="stroke:none;" d="M 4.375 -64.5 C 4.375 -42.96875 4.375 -21.53125 4.375 0 L 5.875 0 L 5.875 -24.796875 L 26.9375 -24.796875 C 53.046875 -24.796875 53.046875 -65.25 26.9375 -65.25 L 4.375 -65.25 Z M 5.875 -26.1875 L 5.875 -63.765625 L 26.9375 -63.765625 C 51.171875 -63.765625 51.171875 -26.1875 26.9375 -26.1875 Z "/>
</symbol>
<symbol overflow="visible" id="glyph2-9">
<path style="stroke:none;" d="M 5.78125 -63.765625 L 26.9375 -63.765625 C 51.171875 -63.765625 51.171875 -28.53125 26.9375 -28.53125 L 14.265625 -28.53125 L 14.265625 -27.125 L 44.28125 0 L 46.421875 0 L 16.40625 -27.125 L 26.9375 -27.125 C 53.046875 -27.125 53.046875 -65.25 26.9375 -65.25 L 4.375 -65.25 L 4.375 0 L 5.78125 0 Z "/>
</symbol>
<symbol overflow="visible" id="glyph2-10">
<path style="stroke:none;" d="M 67.03125 -32.625 C 67.03125 -23.765625 63.484375 -15.84375 57.796875 -10.0625 C 52.015625 -4.1875 44 -0.5625 35.234375 -0.5625 C 26.46875 -0.5625 18.546875 -4.1875 12.765625 -10.0625 C 7.078125 -15.84375 3.453125 -23.765625 3.453125 -32.625 C 3.453125 -41.484375 7.078125 -49.40625 12.765625 -55.1875 C 18.546875 -61.0625 26.46875 -64.6875 35.234375 -64.6875 C 44 -64.6875 52.015625 -61.0625 57.796875 -55.1875 C 63.484375 -49.40625 67.03125 -41.484375 67.03125 -32.625 Z M 1.953125 -32.625 C 1.953125 -23.390625 5.78125 -15.015625 11.75 -8.953125 C 17.71875 -2.796875 26.09375 0.9375 35.234375 0.9375 C 44.46875 0.9375 52.765625 -2.796875 58.828125 -8.953125 C 64.78125 -15.015625 68.609375 -23.390625 68.609375 -32.625 C 68.609375 -41.859375 64.78125 -50.25 58.828125 -56.296875 C 52.765625 -62.453125 44.46875 -66.1875 35.234375 -66.1875 C 26.09375 -66.1875 17.71875 -62.453125 11.75 -56.296875 C 5.78125 -50.25 1.953125 -41.859375 1.953125 -32.625 Z "/>
</symbol>
<symbol overflow="visible" id="glyph2-11">
<path style="stroke:none;" d="M 27.5 -0.84375 L 2.140625 -65.15625 L 0.5625 -65.15625 L 26.75 1.03125 L 28.34375 1.03125 L 54.53125 -65.15625 L 52.953125 -65.15625 Z "/>
</symbol>
<symbol overflow="visible" id="glyph2-12">
<path style="stroke:none;" d="M 5.875 -31.875 L 39.625 -31.875 L 39.625 -33.375 L 5.875 -33.375 L 5.875 -63.765625 L 40.359375 -63.765625 L 40.359375 -65.15625 L 4.375 -65.15625 L 4.375 0 L 40.546875 0 L 40.546875 -1.390625 L 5.875 -1.390625 Z "/>
</symbol>
</g>
</defs>
<g id="surface1">
<g style="fill:rgb(0%,0%,0%);fill-opacity:1;">
  <use xlink:href="#glyph0-1" x="348.216804" y="301.894271"/>
</g>
<g style="fill:rgb(0%,0%,0%);fill-opacity:1;">
  <use xlink:href="#glyph1-1" x="529.648696" y="301.894271"/>
</g>
<g style="fill:rgb(0%,0%,0%);fill-opacity:1;">
  <use xlink:href="#glyph1-2" x="6.128039" y="301.894271"/>
</g>
<path style="fill:none;stroke-width:2;stroke-linecap:butt;stroke-linejoin:miter;stroke:rgb(0%,0%,0%);stroke-opacity:1;stroke-miterlimit:4;" d="M 493.913434 343.000605 L 529.000189 426.500059 L 564.000063 343.000605 " transform="matrix(3.192199,0,0,3.192199,-1250.002,-1067.559)"/>
<path style="fill:none;stroke-width:2;stroke-linecap:butt;stroke-linejoin:miter;stroke:rgb(0%,0%,0%);stroke-opacity:1;stroke-miterlimit:4;" d="M 511.058502 384.999964 L 546.753429 384.999964 " transform="matrix(3.192199,0,0,3.192199,-1250.002,-1067.559)"/>
<g style="fill:rgb(0%,0%,0%);fill-opacity:1;">
  <use xlink:href="#glyph2-1" x="26.006696" y="388.083667"/>
  <use xlink:href="#glyph2-2" x="74.570257" y="388.083667"/>
  <use xlink:href="#glyph2-3" x="127.048732" y="388.083667"/>
  <use xlink:href="#glyph2-4" x="170.019561" y="388.083667"/>
  <use xlink:href="#glyph2-5" x="241.792964" y="388.083667"/>
  <use xlink:href="#glyph2-3" x="291.102223" y="388.083667"/>
  <use xlink:href="#glyph2-6" x="334.073052" y="388.083667"/>
  <use xlink:href="#glyph2-7" x="399.974085" y="388.083667"/>
  <use xlink:href="#glyph2-8" x="432.784783" y="388.083667"/>
  <use xlink:href="#glyph2-9" x="481.348345" y="388.083667"/>
  <use xlink:href="#glyph2-10" x="530.47118" y="388.083667"/>
</g>
<g style="fill:rgb(0%,0%,0%);fill-opacity:1;">
  <use xlink:href="#glyph2-11" x="599.16858" y="388.083667"/>
  <use xlink:href="#glyph2-12" x="654.163784" y="388.083667"/>
  <use xlink:href="#glyph2-9" x="697.134613" y="388.083667"/>
</g>
</g>
</svg>
